img/user.svg

<svg width="14" height="14" viewBox="0 0 14 14" fill="none" xmlns="http://www.w3.org/2000/svg">
<path fill-rule="evenodd" clip-rule="evenodd" d="M2.60427 9.02094C3.15125 8.47396 3.89312 8.16666 4.66667 8.16666H9.33333C10.1069 8.16666 10.8487 8.47396 11.3957 9.02094C11.9427 9.56792 12.25 10.3098 12.25 11.0833V12.25C12.25 12.5722 11.9888 12.8333 11.6667 12.8333C11.3445 12.8333 11.0833 12.5722 11.0833 12.25V11.0833C11.0833 10.6192 10.899 10.1741 10.5708 9.84589C10.2426 9.51771 9.79746 9.33333 9.33333 9.33333H4.66667C4.20254 9.33333 3.75742 9.51771 3.42923 9.84589C3.10104 10.1741 2.91667 10.6192 2.91667 11.0833V12.25C2.91667 12.5722 2.6555 12.8333 2.33333 12.8333C2.01117 12.8333 1.75 12.5722 1.75 12.25V11.0833C1.75 10.3098 2.05729 9.56792 2.60427 9.02094Z" fill="white"/>
<path fill-rule="evenodd" clip-rule="evenodd" d="M6.99992 2.33333C6.03342 2.33333 5.24992 3.11683 5.24992 4.08333C5.24992 5.04983 6.03342 5.83333 6.99992 5.83333C7.96642 5.83333 8.74992 5.04983 8.74992 4.08333C8.74992 3.11683 7.96642 2.33333 6.99992 2.33333ZM4.08325 4.08333C4.08325 2.4725 5.38909 1.16666 6.99992 1.16666C8.61075 1.16666 9.91659 2.4725 9.91659 4.08333C9.91659 5.69416 8.61075 7 6.99992 7C5.38909 7 4.08325 5.69416 4.08325 4.08333Z" fill="white"/>
</svg>

<svg width="14" height="14" viewBox="0 0 14 14" xmlns="http://www.w3.org/2000/svg" fill="none"><path fill-rule="evenodd" clip-rule="evenodd" d="M2.604 9.021c.547-.547 1.289-.854 2.062-.854h4.667c.774 0 1.515.307 2.062.854.547.547.854 1.289.854 2.062v1.167c0 .322-.261.583-.583.583-.322 0-.583-.261-.583-.583v-1.167c0-.464-.184-.909-.512-1.237-.328-.328-.773-.513-1.237-.513h-4.667c-.464 0-.909.184-1.237.513-.328.328-.513.773-.513 1.237v1.167c0 .322-.261.583-.583.583-.322 0-.583-.261-.583-.583v-1.167c0-.774.307-1.515.854-2.062zm4.396-6.688c-.967 0-1.75.784-1.75 1.75s.783 1.75 1.75 1.75c.966 0 1.75-.784 1.75-1.75s-.783-1.75-1.75-1.75zm-2.917 1.75c0-1.611 1.306-2.917 2.917-2.917 1.611 0 2.917 1.306 2.917 2.917 0 1.611-1.306 2.917-2.917 2.917-1.611 0-2.917-1.306-2.917-2.917z" fill="#fff"/></svg>
